src/assets/icons/plans/plan30_selected.svg

<?xml version="1.0" encoding="UTF-8"?>
<svg width="91px" height="44px" viewBox="0 0 91 44" version="1.1" xmlns="http://www.w3.org/2000/svg" xmlns:xlink="http://www.w3.org/1999/xlink">
    <!-- Generator: Sketch 49.3 (51167) - http://www.bohemiancoding.com/sketch -->
    <title>Group 8 Copy 7</title>
    <desc>Created with Sketch.</desc>
    <defs>
        <rect id="path-1" x="0" y="0" width="68" height="33"></rect>
        <circle id="path-3" cx="18" cy="21" r="5"></circle>
    </defs>
    <g id="PROTOOL" stroke="none" stroke-width="1" fill="none" fill-rule="evenodd">
        <g id="plans" transform="translate(-387.000000, -278.000000)">
            <g id="Group" transform="translate(105.000000, 115.000000)">
                <g id="Group-8-Copy-7" transform="translate(283.000000, 164.000000)">
                    <path d="M7.08201139,40 C7.02762338,39.173691 7,38.3400714 7,37.5 C7,16.7893219 23.7893219,0 44.5,0 C65.2106781,0 82,16.7893219 82,37.5 C82,38.3400714 81.9723766,39.173691 81.9179886,40 L7.08201139,40 Z" id="Combined-Shape" stroke="#CFD8DC" stroke-width="2" fill-opacity="0.5" fill="#ECEFF1"></path>
                    <path d="M7.08201139,40 C7.02762338,39.173691 7,38.3400714 7,37.5 C7,16.7893219 23.7893219,0 44.5,0 C65.2106781,0 82,16.7893219 82,37.5 C82,38.3400714 81.9723766,39.173691 81.9179886,40 L7.08201139,40 Z" id="Combined-Shape" stroke="#FFC900" stroke-width="2" fill-opacity="0.4" fill="#FBF6DA"></path>
                    <g id="Group-2" transform="translate(7.000000, 0.000000)" stroke="#FFC900" stroke-linecap="round">
                        <path d="M37.5,0.5 L37.5,39.9588393" id="Line-4" opacity="0.15"></path>
                        <path d="M6.5,17.5 L37.5,39.9588393" id="Line-4"></path>
                        <g id="Group-3" transform="translate(56.000000, 20.000000) scale(-1, 1) translate(-56.000000, -20.000000) translate(37.000000, 0.000000)" opacity="0.15">
                            <path d="M6.5,17.5 L37.5,39.9588393" id="Line-4"></path>
                            <path d="M3.5,22.5 L37.5,39.9588393" id="Line-4"></path>
                            <path d="M1.5,28.5 L37.5,39.9588393" id="Line-4"></path>
                            <path d="M0.5,34.5 L37.5,39.9588393" id="Line-4"></path>
                            <path d="M9.5,12.5 L37.5,39.9588393" id="Line-4"></path>
                            <path d="M14.5,8.5 L37.5,39.9588393" id="Line-4"></path>
                            <path d="M19.5,4.5 L37.5,39.9588393" id="Line-4"></path>
                            <path d="M25.5,2.5 L37.5,39.9588393" id="Line-4"></path>
                            <path d="M31.5,0.5 L37.5,39.9588393" id="Line-4"></path>
                        </g>
                        <path d="M3.5,22.5 L37.5,39.9588393" id="Line-4"></path>
                        <path d="M1.5,28.5 L37.5,39.9588393" id="Line-4"></path>
                        <path d="M0.5,34.5 L37.5,39.9588393" id="Line-4"></path>
                        <path d="M9.5,12.5 L37.5,39.9588393" id="Line-4"></path>
                        <path d="M14.5,8.5 L37.5,39.9588393" id="Line-4"></path>
                        <path d="M19.5,4.5 L37.5,39.9588393" id="Line-4" opacity="0.15"></path>
                        <path d="M25.5,2.5 L37.5,39.9588393" id="Line-4" opacity="0.15"></path>
                        <path d="M31.5,0.5 L37.5,39.9588393" id="Line-4" opacity="0.15"></path>
                    </g>
                    <path d="M0.404545455,40 L88.6288511,40" id="Line" stroke="#FFC900" stroke-width="2" stroke-linecap="round"></path>
                    <g id="Mask" transform="translate(10.000000, 6.000000)">
                        <mask id="mask-2" fill="white">
                            <use xlink:href="#path-1"></use>
                        </mask>
                        <g></g>
                        <g mask="url(#mask-2)" fill="#FFFFFF">
                            <g transform="translate(3.000000, 0.000000)">
                                <circle cx="31.5" cy="31.5" r="31.5"></circle>
                            </g>
                        </g>
                    </g>
                    <g id="puntero" transform="translate(27.000000, 17.000000)">
                        <rect id="Rectangle" stroke="#FFC900" stroke-width="2" fill="#FBF6DA" transform="translate(10.607942, 12.190489) rotate(-40.000000) translate(-10.607942, -12.190489) " x="8.60794249" y="-1.3095111" width="4" height="27" rx="2"></rect>
                        <g id="Oval-2">
                            <use fill="#FFFFFF" fill-rule="evenodd" xlink:href="#path-3"></use>
                            <circle stroke="#FFC900" stroke-width="2" cx="18" cy="21" r="4"></circle>
                        </g>
                        <circle id="Oval-2" fill="#FBF6DA" cx="18" cy="21" r="1.19842657"></circle>
                    </g>
                </g>
            </g>
        </g>
    </g>
</svg>

<svg width="91" height="44" viewBox="0 0 91 44" xmlns="http://www.w3.org/2000/svg" xmlns:xlink="http://www.w3.org/1999/xlink"><defs><path id="path-1" d="M0 0h68v33H0z"/><circle id="path-3" cx="18" cy="21" r="5"/></defs><g id="PROTOOL" fill="none" fill-rule="evenodd"><g id="plans" transform="translate(-387 -278)"><g id="Group" transform="translate(105 115)"><g id="Group-8-Copy-7" transform="translate(283 164)"><path d="M7.082 40A38.06 38.06 0 0 1 7 37.5C7 16.79 23.79 0 44.5 0S82 16.79 82 37.5c0 .84-.028 1.674-.082 2.5H7.082z" id="Combined-Shape" stroke="#CFD8DC" stroke-width="2" fill-opacity=".5" fill="#ECEFF1"/><path d="M7.082 40A38.06 38.06 0 0 1 7 37.5C7 16.79 23.79 0 44.5 0S82 16.79 82 37.5c0 .84-.028 1.674-.082 2.5H7.082z" id="Combined-Shape" stroke="#FFC900" stroke-width="2" fill-opacity=".4" fill="#FBF6DA"/><g id="Group-2" transform="translate(7)" stroke="#FFC900" stroke-linecap="round"><path d="M37.5.5v39.459" id="Line-4" opacity=".15"/><path d="M6.5 17.5l31 22.459" id="Line-4"/><g id="Group-3" transform="matrix(-1 0 0 1 75 0)" opacity=".15"><path d="M6.5 17.5l31 22.459M3.5 22.5l34 17.459M1.5 28.5l36 11.459M.5 34.5l37 5.459M9.5 12.5l28 27.459M14.5 8.5l23 31.459M19.5 4.5l18 35.459M25.5 2.5l12 37.459M31.5.5l6 39.459" id="Line-4"/></g><path d="M3.5 22.5l34 17.459M1.5 28.5l36 11.459M.5 34.5l37 5.459M9.5 12.5l28 27.459M14.5 8.5l23 31.459" id="Line-4"/><path d="M19.5 4.5l18 35.459M25.5 2.5l12 37.459M31.5.5l6 39.459" id="Line-4" opacity=".15"/></g><path d="M.405 40h88.224" id="Line" stroke="#FFC900" stroke-width="2" stroke-linecap="round"/><g id="Mask" transform="translate(10 6)"><mask id="mask-2" fill="#fff"><use xlink:href="#path-1"/></mask><g mask="url(#mask-2)" fill="#FFF"><circle cx="31.5" cy="31.5" r="31.5" transform="translate(3)"/></g></g><g id="puntero" transform="translate(27 17)"><rect id="Rectangle" stroke="#FFC900" stroke-width="2" fill="#FBF6DA" transform="rotate(-40 10.608 12.19)" x="8.608" y="-1.31" width="4" height="27" rx="2"/><g id="Oval-2"><use fill="#FFF" xlink:href="#path-3"/><circle stroke="#FFC900" stroke-width="2" cx="18" cy="21" r="4"/></g><circle id="Oval-2" fill="#FBF6DA" cx="18" cy="21" r="1.198"/></g></g></g></g></g></svg>
